X:10
T:Faustus
B:Goulding and d'Almaine's Twenty-four Country Dances For the year 1826.
L:1/8
M:6/8
Z:Richard Robinson <URL:http://www.qualmograph.org.uk/contact.html>
F:http://richardrobinson.tunebook.org.uk/Tune/3554
K:D
% - - - - - - - - - - - - - - - - - - - - - - - - -
F/G/ |\
|:!segno! AAA AAA | "^>"[f2A2]d A2F | GBG FAF | Eed cBA |\
    AAA AAA | "^>"[f2A2]d A2F | Ged cBc | d2D D2 :|
|: c/d/ |\
eee ecA | ffe def | eee ecA | dfe d2c/d/ |\
eee ecA | aaa agf | eae dcB | AFG AFG !segno! :|
% - - - - - - - - - - - - - - - - - - - - - - - - -
%%begintext align
%% Balancez 1st & 2d Couples, retaining hands
%% lead down the middle & chain, figure of four at top
%%endtext
